X: 27718
T: Morning Dew, The
R: reel
M: 4/4
K: Edorian
|:~E3 B BAFA|EDEB BAFD|~E3 B BAFA|BcdB ADFA:|
|:~B2 eB fBeB|~B2 eB AFDF|1 ~B2 eB fBeB|BcdB AFDF:|2 Bdeg fdec|d2dA BAFD||
~B2 EB GBEB|~B2 EB AFDF|1 ~B2 eB GBEB|BcdB AFDF:|2 Bdeg fdec|d2dA BAFD||
|:BAGF EFGA|~B2 GB ~A2 GA|BAGF EFGA|BcdB AFDF:|

